shared/images/iconfont/30-kb-iconfont-file-note-16.svg

<?xml version="1.0" encoding="UTF-8"?>
<svg width="16px" height="16px" viewBox="0 0 16 16" version="1.1" xmlns="http://www.w3.org/2000/svg" xmlns:xlink="http://www.w3.org/1999/xlink">
    <!-- Generator: sketchtool 57.1 (101010) - https://sketch.com -->
    <title>1B93A9EF-26F8-40ED-B330-04164FC3BC58</title>
    <desc>Created with sketchtool.</desc>
    <g id="Symbols" stroke="none" stroke-width="1" fill="none" fill-rule="evenodd">
        <g id="30-kb-iconfont-file-note-16">
            <g>
                <rect id="icon-area" opacity="0" x="0" y="0" width="16" height="16"></rect>
                <path d="M11,0 L11,3 C11,3.55228475 11.4477153,4 12,4 L15,4 L15,4 L11,0 Z M10,0 L10,4 C10,4.55228475 10.4477153,5 11,5 L11,5 L14.9835983,5 L14.9835983,14.6666667 C14.9835983,15.4030311 14.3866294,16 13.650265,16 L13.650265,16 L3.33333333,16 C2.59696892,16 2,15.4030311 2,14.6666667 L2,14.6666667 L2,1.33333333 C2,0.596967392 2.59696739,0 3.33333333,0 L3.33333333,0 L10,0 Z M10.1871364,7.7882598 C10.227994,7.27968597 9.82988814,6.77739756 9.20463855,6.92629961 C9.01440649,6.97160303 8.87122223,7.06091706 8.66608165,7.22157895 C8.24797738,7.54902961 9.60350322,6.27590387 4.56431195,11.0394228 L4.56431195,11.0394228 L5.59473681,12.1294799 C6.78293452,11.0062834 7.60623541,10.2275873 8.17777534,9.68752993 C8.16366639,10.1064189 8.23830459,10.4926049 8.42483216,10.8727369 C8.97229488,11.9884333 10.3299326,12.4513652 12.5207489,12.2674252 L12.5207489,12.2674252 L12.3952511,10.7726843 C10.75151,10.9106921 9.98627195,10.6497587 9.77144947,10.2119633 C9.61318937,9.88943864 9.67755849,9.37636131 9.93654271,8.63195277 C9.96091417,8.56190095 10.0578735,8.29218198 10.0794234,8.22944617 C10.1435429,8.0427822 10.1761419,7.92511377 10.1871364,7.7882598 Z" id="file-activity" fill="#000000"></path>
            </g>
        </g>
    </g>
</svg>

<svg xmlns="http://www.w3.org/2000/svg" width="16" height="16" viewBox="0 0 16 16">
    <path fill="#000" fill-rule="evenodd" d="M11 0v3a1 1 0 0 0 1 1h3l-4-4zm-1 0v4a1 1 0 0 0 1 1h3.984v9.667c0 .736-.597 1.333-1.334 1.333H3.333A1.333 1.333 0 0 1 2 14.667V1.333C2 .597 2.597 0 3.333 0H10zm.187 7.788c.041-.508-.357-1.01-.982-.862-.19.046-.334.135-.539.296-.418.327.938-.946-4.102 3.817l1.03 1.09 2.584-2.441c-.014.418.06.805.247 1.185.547 1.115 1.905 1.578 4.096 1.394l-.126-1.494c-1.643.138-2.409-.123-2.624-.561-.158-.323-.093-.836.166-1.58l.142-.403c.065-.186.097-.304.108-.44z"/>
</svg>
